X:1
T:Haste to the Wedding (Rural Felicity)
M:6/8
L:1/8
K:D
 z4 A2| AFA Agf| ede fdB| AFAB/2-c/2 dF| EEE E2F/2-G/2| AFA Agf| ede fdB|\
 AFA faf| ddd d2 a| afaa-f b| bgbb-g b| afa agf| eee e3| a3 f3| ede fdB|\
 AFA faf| ddd d3|
